src/16/panel/network-wired-no-route.svg

<svg xmlns="http://www.w3.org/2000/svg" width="16" height="16" version="1.1">
 <defs>
  <style id="current-color-scheme" type="text/css">
   .ColorScheme-Text { color:#dfdfdf; } .ColorScheme-Highlight { color:#4285f4; }
  </style>
 </defs>
 <path style="fill:currentColor" class="ColorScheme-Text" d="M 2,2 C 2,2 1,2 1,3 V 12 C 1,13 2,13 2,13 H 4 L 5,14 H 11 L 12,13 H 14 C 14,13 15,13.13 15,12 V 3 C 15,2 14,2 14,2 Z M 8,4 C 9.1,4 10,4.9 10,6 10,7.11 9.1,8 8,8 V 9 H 7 V 7 H 8 C 8.55,7 9,6.55 9,6 9,5.45 8.55,5 8,5 7.45,5 7,5.45 7,6 H 6 C 6,4.9 6.9,4 8,4 Z M 7.5,9.75 C 7.91,9.75 8.25,10.09 8.25,10.5 8.25,10.92 7.91,11.25 7.5,11.25 7.09,11.25 6.75,10.92 6.75,10.5 6.75,10.09 7.09,9.75 7.5,9.75 Z"/>
</svg>

<svg height="16" width="16" xmlns="http://www.w3.org/2000/svg"><defs><style id="current-color-scheme" type="text/css">.ColorScheme-Text{color:#dfdfdf;}.ColorScheme-Highlight{color:#5294e2;}</style></defs><path d="M2 2.002s-1 0-1 1v9c0 1 1 1 1 1h2l1 1h6l1-1h2s1 .13 1-1v-9c0-1-1-1-1-1H2zm6 2a2 2 0 1 1 0 4v1H7v-2h1a1 1 0 1 0-1-1H6a2 2 0 0 1 2-2zm-.5 5.75a.75.75 0 1 1 0 1.5.75.75 0 0 1 0-1.5z" fill="#dfdfdf" stroke-width="2" stroke-linecap="round" stroke-linejoin="round"/></svg>
